X: 33
T:SCOTTISH A VIRMOUX
M:4/4
L:1/8
Q:1/4=150
K:G
|:GdcB d2d/2 z/2 B|cBcd e3/2 z/2 d3/2 z/2 |dgdB c3/2 z/2 BA|1BdBG A3A/2
z/2:|2GdcB G4|!
|:g3/2 z/2 d3/2 z/2 g3 f|edef gage|d3/2 z/2 G3/2 z/2 d3/2 z/2 cB|1ABcd e
def:|2ABcd G4|
